X:1
T:Blackthorn Stick, The
M:6/8
L:1/8
R:Jig
S:Chuch Whitmore at the West Lafayette Session.
K:G
GED D3 | GEG c2e | dBG GAB | AGE E2D |
GED D3 | GEG c2e | dBG GAB | AGF G3 :|
gdb Gbd | gdb c2e | dBG GAB | AGE E2D |
gdb Gbd | gdb c2e | dBG GAB | AGF G3 | 
gdb dgb | gdb c2e | dBG GAB | AGE E2D |
GED D3 | GEG c2e | dBG GAB | AGE E2D |
